X:3632
T:Cul Dreimne*
M:3/2
L:1/4
Q:300
C:Stephen P. McNally
R:Hornpipe
K:Hp
|:edBBcA|edBBfg|1edBBcA|dBBgBB:|2AceaAc/2e/2|g2Acac-|!
|:cefdeg|cefdad|1cefdeg|dBBgBB:|2AceaAc/2e/2|g2Acae-|!
|:eafefa-|afaead|1eafefa|dBBgBB:|2AceaAc/2e/2|g2Acae-|!
|:eaaead|caaBca|1faagfe|dBBgBB:|2AceaAc/2e/2|g2Acae-|!


